Adwaita++-Dark/actions/16/format-node-symmetric.svg

<svg height="16" viewBox="0 0 16 16" width="16" xmlns="http://www.w3.org/2000/svg">
  <path d="m6 6v2h-2v-1h-3v3h3v-1h2v1h4v-1h2v1h3v-3h-3v1h-2v-2z" fill="#e6ddff"/>
</svg>

<svg xmlns="http://www.w3.org/2000/svg" width="16" height="16" viewBox="0 0 16 16">
 <defs>
  <style id="current-color-scheme" type="text/css">
   .ColorScheme-Text { color:#E6DDFF; } .ColorScheme-Highlight { color:#4285f4; }
  </style>
 </defs>
 <path style="fill:currentColor" class="ColorScheme-Text" d="M 6 6 L 6 8 L 4 8 L 4 7 L 1 7 L 1 10 L 4 10 L 4 9 L 6 9 L 6 10 L 10 10 L 10 9 L 12 9 L 12 10 L 15 10 L 15 7 L 12 7 L 12 8 L 10 8 L 10 6 L 6 6 z"/>
</svg>
